assets/icons/ubuntu-logo/large.svg

<?xml version="1.0" encoding="UTF-8" standalone="no"?>
<svg viewBox="0 0 24 24" height="24" id="svg7384" version="1.1" width="24" sodipodi:docname="large.svg" inkscape:version="1.1.2 (08b2f3d93c, 2022-04-05)"
   xmlns:inkscape="http://www.inkscape.org/namespaces/inkscape"
   xmlns:sodipodi="http://sodipodi.sourceforge.net/DTD/sodipodi-0.dtd"
   xmlns="http://www.w3.org/2000/svg"
   xmlns:svg="http://www.w3.org/2000/svg"
   xmlns:rdf="http://www.w3.org/1999/02/22-rdf-syntax-ns#"
   xmlns:cc="http://creativecommons.org/ns#"
   xmlns:dc="http://purl.org/dc/elements/1.1/">
   <sodipodi:namedview pagecolor="#ffffff" bordercolor="#666666" borderopacity="1" objecttolerance="10" gridtolerance="10" guidetolerance="10" inkscape:pageopacity="0" inkscape:pageshadow="2" inkscape:window-width="1920" inkscape:window-height="1043" id="namedview21" showgrid="true" inkscape:zoom="7.624999" inkscape:cx="87.409848" inkscape:cy="25.049184" inkscape:window-x="1920" inkscape:window-y="0" inkscape:window-maximized="1" inkscape:current-layer="svg7384" inkscape:pagecheckerboard="0" width="24px">
      <inkscape:grid type="xygrid" id="grid846" />
   </sodipodi:namedview>
   <metadata id="metadata20854">
      <rdf:RDF>
         <cc:Work rdf:about="">
            <dc:format>image/svg+xml</dc:format>
            <dc:type rdf:resource="http://purl.org/dc/dcmitype/StillImage" />
         </cc:Work>
      </rdf:RDF>
   </metadata>
   <defs id="defs7386">
      <linearGradient id="linearGradient5606" inkscape:swatch="solid">
         <stop id="stop5608" offset="0" style="stop-color:#000000;stop-opacity:1;" />
      </linearGradient>
      <linearGradient id="linearGradient4526" inkscape:swatch="solid">
         <stop id="stop4528" offset="0" style="stop-color:#ffffff;stop-opacity:1;" />
      </linearGradient>
      <linearGradient id="linearGradient3600-4" inkscape:swatch="gradient">
         <stop id="stop3602-7" offset="0" style="stop-color:#f4f4f4;stop-opacity:1" />
         <stop id="stop3604-6" offset="1" style="stop-color:#dbdbdb;stop-opacity:1" />
      </linearGradient>
   </defs>
   <path id="rect4" style="fill:#808080;stroke-width:1;fill-opacity:1" class="st0" d="M 5 2 L 5 22 L 19.0625 22 L 19.0625 2 L 5 2 z M 14.21875 9.9375 A 1.46875 1.46875 0 0 1 15.6875 11.40625 A 1.46875 1.46875 0 0 1 14.21875 12.875 A 1.46875 1.46875 0 0 1 12.75 11.40625 A 1.46875 1.46875 0 0 1 14.21875 9.9375 z M 12.183594 10.080078 C 12.299007 10.08054 12.415039 10.084961 12.53125 10.09375 C 12.328125 10.34375 12.1875 10.640625 12.125 10.953125 C 12.09376 11.0625 12.078125 11.171875 12.078125 11.28125 C 10.921875 11.296875 9.84375 11.875 9.1875 12.828125 C 8.984375 12.703125 8.75 12.60937 8.515625 12.5625 C 8.359375 12.53126 8.21875 12.515625 8.0625 12.515625 L 7.953125 12.515625 C 8.8320312 10.992188 10.452389 10.073154 12.183594 10.080078 z M 16.1875 12.234375 C 17.328125 13.984375 17.234375 16.265625 15.9375 17.90625 C 15.828125 17.46875 15.578125 17.078125 15.234375 16.796875 C 15.90625 15.703125 15.953125 14.328125 15.359375 13.203125 C 15.734375 12.96875 16.015625 12.640625 16.1875 12.234375 z M 8.0625 13.171875 A 1.46875 1.46875 0 0 1 9.53125 14.640625 A 1.46875 1.46875 0 0 1 8.0625 16.109375 A 1.46875 1.46875 0 0 1 6.59375 14.640625 A 1.46875 1.46875 0 0 1 8.0625 13.171875 z M 8.9375 16.5625 C 9.4375 17.53125 10.328125 18.21875 11.390625 18.4375 C 11.515625 18.45313 11.640625 18.48437 11.734375 18.5 C 11.75 18.953125 11.90625 19.375 12.171875 19.734375 C 11.828125 19.734375 11.46875 19.70313 11.125 19.625 C 9.5625 19.28125 8.265625 18.203125 7.671875 16.71875 C 8.09375 16.796875 8.546875 16.75 8.9375 16.5625 z M 13.875 16.96875 A 1.46875 1.46875 0 0 1 15.34375 18.4375 A 1.46875 1.46875 0 0 1 13.875 19.90625 A 1.46875 1.46875 0 0 1 12.40625 18.4375 A 1.46875 1.46875 0 0 1 13.875 16.96875 z " />
</svg>

<svg height="24" width="24" xmlns="http://www.w3.org/2000/svg"><path style="fill:gray;stroke-width:1;fill-opacity:1" class="st0" d="M5 2v20h14.063V2H5zm9.219 7.938a1.469 1.469 0 0 1 1.469 1.468 1.469 1.469 0 0 1-1.47 1.469 1.469 1.469 0 0 1-1.468-1.469 1.469 1.469 0 0 1 1.469-1.469zm-2.035.142c.115 0 .231.005.347.014-.203.25-.344.547-.406.86a1.19 1.19 0 0 0-.047.327 3.571 3.571 0 0 0-2.89 1.547 2.083 2.083 0 0 0-.672-.265 2.232 2.232 0 0 0-.454-.047h-.109a4.863 4.863 0 0 1 4.23-2.436zm4.004 2.154a4.86 4.86 0 0 1-.25 5.672 2.095 2.095 0 0 0-.704-1.11 3.642 3.642 0 0 0 .125-3.593c.375-.234.657-.562.829-.969zm-8.125.938A1.469 1.469 0 0 1 9.53 14.64a1.469 1.469 0 0 1-1.469 1.468 1.469 1.469 0 0 1-1.468-1.468 1.469 1.469 0 0 1 1.468-1.47zm.874 3.39a3.56 3.56 0 0 0 2.454 1.875c.125.016.25.047.343.063.016.453.172.875.438 1.234a4.818 4.818 0 0 1-4.5-3.016c.422.079.875.032 1.266-.155zm4.938.407a1.469 1.469 0 0 1 1.469 1.468 1.469 1.469 0 0 1-1.469 1.47 1.469 1.469 0 0 1-1.469-1.47 1.469 1.469 0 0 1 1.469-1.468z"/></svg>
